X:1
T:Title
%%score { ( 1 3 ) | ( 2 4 ) }
L:1/8
Q:1/4=104
M:4/4
K:G
V:1 treble nm="Grand Piano"
V:3 treble 
V:2 treble 
V:4 treble 
V:1
 G2 G>A B2 G2 | [_Be]4 [=Bd]2 B2 | c2 A2 B2 [DG]2 | [DFA]8 | [^CGA]2 [CGA]>[CGB] [G^c]2 [CGB]2 | %5
w: Chas.~H.~Gabriel * * * *|||||
 [DGB]4 [DFA]2 [DAd]2 | [DFA]2 [EG]2 [A,DF]2[K:bass] [G,^CE]2 | [F,D]8 | d>e d>c B>A G>A | %9
w: ||||
 B3 A G4 | [Ac]>[GB] [FA]>[GB] [Ac]2 [Fe]2 | d2 ^c2 d4 | e>d c2 d>c B2 | c>B A>G [DFA]2 [DFd]2 | %14
w: |||||
 [DGd]>[DGe] [EGd]>[EGc] [GB]2 [FA]>F | G2 A2 B2 c2 |[M:5/4] d>e d>[EGc] [DGB]3 [CDA]3 | %17
w: |||
[M:4/4] [B,DG]6 z2 |] %18
w: |
V:2
 [G,B,D]2 [G,B,D]>[G,CD] [G,DG]2 [G,B,]2 | [G,C]4 [G,D]2 [G,DG]2 | %2
 [A,DF]2[K:bass] [F,D]2 [G,DG]2 B,,2 | D,8 | E,2 E,>E, [E,A,]2 A,,2 | D,4 D,2 F,2 | %6
 A,2 A,2 A,,2 A,,2 | D,8 | z4 [G,G]2 z2 | D4[K:bass] z4 | [D,D]2 [D,D]2 [D,D]2 [D,C]2 | %11
 [G,B,G]2 [G,_B,G]2 [G,=B,G]4 | [^G,B,E]2 [A,E]2[K:bass] F,->[F,D][K:treble] [=G,DG]2 | %13
 [A,DF]>[G,DG][K:bass] [F,D]>[E,^CE] D,2 C,2 | B,,>B,, C,>C, [D,D]2 [D,D]>[D,C] | %15
 [E,B,E]2 [F,D]2[K:treble] [G,DG]2 [G,A,G]2 |[M:5/4] [G,B,G]>[G,CG] [G,B,G]>[K:bass]C, D,3 D,3 | %17
[M:4/4] G,,6 z2 |] %18
V:3
 x8 | x8 | x8 | x8 | x8 | x8 | x6[K:bass] x2 | z2 C,2 B,,2 A,,2 | x8 | x8 | x8 | x8 | z4 A2 z2 | %13
 x8 | x8 | x8 |[M:5/4] x10 |[M:4/4] x8 |] %18
V:4
 x8 | x8 | x2[K:bass] x6 | x8 | x8 | x8 | x8 | x8 | %8
 [G,B,G]>[G,CG] [G,B,G]>[G,EG] D>C [G,B,D]>[G,CD] | [G,G]3- [G,CG][K:bass] [G,B,D]4 | x8 | x8 | %12
 z4[K:bass] A,2[K:treble] z2 | x2[K:bass] x6 | x8 | x4[K:treble] x4 |[M:5/4] x7/2[K:bass] x13/2 | %17
[M:4/4] x8 |] %18

